!!!!SEGMENT: pl-wn--sd-xvi-o-252_anonim--kancjonal-zamoyskich-piesn-druga-o-przysciu-panskim-w-cialo-toc-czas-wdzieczny-przyszedl.krn
!!!cenid: 15xx:810
!!!COM: Anonim
!!!COM-rismID: pe30004985
!!!CDT:
!!!CNT:
!!!GTL: Kancjonał Zamoyskich
!!!OTL: Pieśń druga o przyściu pańskim w ciało/Toć czas wdzięczny przyszedł
!!!PDT: 1558
!!!AGN:
!!!SMS-siglum: PL-Wn
!!!SMS-shelfmark: SD XVI.O.252
!!!SMS-shelfwork: G
!!!SMS-variant:
!!!SMS-altvar:
!!!NIFC-rismSourceID: 990072126
!!!NIFC-rismChildID: 990072126
!!!NIFC-islandoraID: none
!!!URL-pdf-islandora:
!!!URL-scan: https://polona.pl/item/piesn-druga-o-przysciu-panskim-w-cialo,MTE3MjI1NA/3 @EN{Scan on Polona} @PL{Skany w portalu Polona}
!!!IIIF: https://polona.pl/iiif/item/MTE3MjI1NA/manifest.json
!!!ONB-nifc: UWAGA: proszę zapisywać tylko teksty występujące bezpośrednio pod nutami
!!!AIN: 1 alto 1 bass 1 soprn 1 tenor
!!!key: F:lyd
!!!tempo-scaling: 60%
**kern	**text	**mod-text	**kern	**text	**mod-text	**kern	**text	**mod-text	**kern	**text	**mod-text
*part4	*part4	*part4	*part3	*part3	*part3	*part2	*part2	*part2	*part1	*part1	*part1
*staff4	*staff4	*staff4	*staff3	*staff3	*staff3	*staff2	*staff2	*staff2	*staff1	*staff1	*staff1
*I"BAS.	*	*	*I"TENOR.	*	*	*I"ALT.	*	*	*I"CANTVB.	*	*
*mI"Basso	*	*	*mI"Tenore	*	*	*mI"Alto	*	*	*mI"Soprano	*	*
*I'B	*	*	*I'T	*	*	*I'A	*	*	*I'S	*	*
*Ibass	*	*	*Itenor	*	*	*Ialto	*	*	*Isoprn	*	*
*ICvox	*	*	*ICvox	*	*	*ICvox	*	*	*ICvox	*	*
*clefF4	*	*	*clefC4	*	*	*clefC3	*	*	*clefC1	*	*
*	*	*	*mclefGv2	*	*	*mclefG2	*	*	*mclefG2	*	*
*k[b-]	*	*	*k[b-]	*	*	*k[b-]	*	*	*k[b-]	*	*
*F:lyd	*	*	*F:lyd	*	*	*F:lyd	*	*	*F:lyd	*	*
!	!	!	!LO:MO:mod=!LO&colon;TS&colon;brack	!	!	!	!	!	!	!	!
!	!	!	!null	!	!	!	!	!	!	!	!
*M2/1	*	*	*M2/1	*	*	*M2/1	*	*	*M2/1	*	*
*met(C|)	*	*	*met()	*	*	*met(C|)	*	*	*met(C|)	*	*
*mmet(c|)	*	*	*mmet(c|)	*	*	*mmet(c|)	*	*	*mmet(c|)	*	*
=1-	=1-	=1-	=1-	=1-	=1-	=1-	=1-	=1-	=1-	=1-	=1-
*xywh-#6:553,1601,2166,666	*	*	*xywh-#5:2965,264,2052,847	*	*	*xywh-#6:594,326,2114,662	*	*	*xywh-#5:577,352,1919,731	*	*
!LO:TX:t=P:problem:znaki: błędnie D- zamiast BB-	!	!	!	!	!	!	!	!	!	!	!
1F	.	Toć	1F	Toc	Toć	1c	.	Toć	1f	Toć	Toć
1F	.	czas	1F	czás	czas	1c	.	czas	2f/	czás	czas
.	.	.	.	.	.	.	.	.	1cc\	wdźięcz-	wdzię-
=2-	=2-	=2-	=2-	=2-	=2-	=2-	=2-	=2-	=2-	=2-	=2-
1F	.	wdzię-	1A	wdźięcz-	wdzię-	1f	.	wdzię-	.	.	.
.	.	.	.	.	.	.	.	.	4b-\	-ny	.
.	.	.	.	.	.	.	.	.	4a\	przy-	.
!	!	!	!	!	!	!LO:SIC:s=1d	!	!	!	!	!
1G	.	-czny	1B-	-ny	-czny	1e	.	-czny	2g/	-ſſedł/	.
.	.	.	.	.	.	.	.	.	2g/	gdy	-czny
=3-	=3-	=3-	=3-	=3-	=3-	=3-	=3-	=3-	=3-	=3-	=3-
!	!	!	!	!	!	!	!	!	!LO:SIC:v:s=0g	!	!
0C	.	przy-	0c	przy-	przy-	0e	.	przy-	0f	pa(n)	przy-
=4-	=4-	=4-	=4-	=4-	=4-	=4-	=4-	=4-	=4-	=4-	=4-
!	!	!	!	!	!	!	!	!	!LO:SIC:v:s=0g	!	!
0C	.	-szedł	0c	-ſſedł/	-szedł	0e	.	-szedł	0f	.	-szedł
=5-	=5-	=5-	=5-	=5-	=5-	=5-	=5-	=5-	=5-	=5-	=5-
1G	.	gdy	1d	gdy	gdy	1g	.	gdy	1b-	.	gdy
1C	.	Pan	1e	pa(n)	Pan	1g	.	Pan	1cc	.	Pan
=6-	=6-	=6-	=6-	=6-	=6-	=6-	=6-	=6-	=6-	=6-	=6-
2.D/	.	z_nie-	1f	.	z_nie-	4d\	.	z_nie-	1a	.	z_nie-
.	.	.	.	.	.	4e\	.	.	.	.	.
.	.	.	.	.	.	4f\	.	.	.	.	.
4E\	.	.	.	.	.	4g\	.	.	.	.	.
2F\	.	.	1c	.	-ba	2a\	.	.	2a\	.	-ba
2E\	.	-ba	.	.	.	2g\	.	-ba	1cc\	.	wy-
=7-	=7-	=7-	=7-	=7-	=7-	=7-	=7-	=7-	=7-	=7-	=7-
*lig	*	*	*lig	*	*	*	*	*	*	*	*
1F	.	wy-	1A	.	wy-	1f	.	wy-	.	.	.
*	*	*	*	*	*	*	*	*	*custos:b	*	*
!	!	!	!	!	!	!	!	!	!LO:LB:g=original	!	!
*	*	*	*	*	*	*	*	*	*xywh-#5:635,1049,1885,531	*	*
.	.	.	.	.	.	.	.	.	4b-\	z nie-	.
.	.	.	.	.	.	.	.	.	4a\	-bá	.
1G	.	.	1B-	.	.	1d	.	.	1g	wy-	.
*Xlig	*	*	*Xlig	*	*	*	*	*	*	*	*
*	*	*	*custos:c	*	*	*	*	*	*	*	*
=8-	=8-	=8-	=8-	=8-	=8-	=8-	=8-	=8-	=8-	=8-	=8-
!	!	!	!LO:LB:g=original	!	!	!	!	!	!	!	!
*	*	*	*xywh-#5:2951,1045,1961,476	*	*	*	*	*	*	*	*
0C	.	-szedł	0c	z nie-	-szedł	0e	.	-szedł	0g	-ſſedł/	-szedł
=9-	=9-	=9-	=9-	=9-	=9-	=9-	=9-	=9-	=9-	=9-	=9-
1G	.	ku	1B-	-bá	ku	1d	.	ku	1g	ku	ku
*	*	*	*	*	*	*custos:c	*	*	*	*	*
!	!	!	!	!	!	!LO:LB:g=original	!	!	!	!	!
*	*	*	*	*	*	*xywh-#6:594,932,2159,399	*	*	*	*	*
1C	.	czci	1G	wy-	czci	1c	.	czci	1e	czći	czci
*custos:F	*	*	*	*	*	*	*	*	*	*	*
=10-	=10-	=10-	=10-	=10-	=10-	=10-	=10-	=10-	=10-	=10-	=10-
!LO:LB:g=original	!	!	!	!	!	!	!	!	!	!	!
*xywh-#6:548,2187,2152,490	*	*	*	*	*	*	*	*	*	*	*
1F	.	Oj-	1A	-ſſedł/	Oj-	1c	.	Oj-	1f	oy-	Oj-
2.G\	.	.	1B-	ku	-cu	4G/	.	-cu	2d/	-cu	.
.	.	.	.	.	.	4A/	.	.	.	.	.
.	.	.	.	.	.	4B-/	.	.	2.g/	ſwe-	.
4F\	.	.	.	.	.	4c/	.	.	.	.	.
=11-	=11-	=11-	=11-	=11-	=11-	=11-	=11-	=11-	=11-	=11-	=11-
*	*	*	*lig	*	*	*	*	*	*	*	*
4D\	.	-cu	1A	czći	swe-	2d\	.	swe-	.	.	.
4E\	.	.	.	.	.	.	.	.	4f/	-mu	.
2F\	.	.	.	.	.	1.c	.	.	1f	.	-cu
1C	.	swe-	1G	.	.	.	.	.	.	.	.
.	.	.	.	.	swe-	.	.	.	2e/	.	swe-
*	*	*	*Xlig	*	*	*	*	*	*	*	*
=12-	=12-	=12-	=12-	=12-	=12-	=12-	=12-	=12-	=12-	=12-	=12-
0FF	.	-mu	0F	oy-	-mu	0A	.	-mu	0f	.	-mu
=13-	=13-	=13-	=13-	=13-	=13-	=13-	=13-	=13-	=13-	=13-	=13-
1C	.	k'zba-	1E	-cu	k'zba-	1c	.	k'zba-	1g	.	k'zba-
1FF	.	-wie-	1F	ſwe-	-wie-	2c/	.	-wie-	1a	.	-wie-
.	.	.	.	.	.	1f\	.	-niu	.	.	.
*	*	*	*	*	*	*	*	*	*custos:g	*	*
=14-	=14-	=14-	=14-	=14-	=14-	=14-	=14-	=14-	=14-	=14-	=14-
!	!	!	!	!	!	!	!	!	!LO:LB:g=original	!	!
*	*	*	*	*	*	*	*	*	*xywh-#5:623,1529,1874,571	*	*
1C	.	-niu	1G	-mu/	-niu	.	.	.	1g	zba-	-niu
.	.	.	.	.	.	2e\	.	.	.	.	.
!	!	!	!LO:TX:t=P:problem:błędnie custos G zamiast B	!	!	!	!	!	!	!	!
2FF/	.	ludz-	1A	.	ludz-	2.c/	.	ludz-	1f	-wie-	ludz-
1F\	.	-kie-	.	.	.	.	.	.	.	.	.
!	!	!	!	!	!	!LO:SIC:s=4Bi	!	!	!	!	!
.	.	.	.	.	.	4B-/	.	.	.	.	.
*	*	*	*custos:G	*	*	*	*	*	*	*	*
=15-	=15-	=15-	=15-	=15-	=15-	=15-	=15-	=15-	=15-	=15-	=15-
*	*	*	*lig	*	*	*	*	*	*lig	*	*
!	!	!	!LO:LB:g=original	!	!	!	!	!	!	!	!
*	*	*	*xywh-#5:2941,1454,1976,533	*	*	*	*	*	*	*	*
.	.	.	1B-	k[u]	-kie-	4c/	.	-kie-	1g	-niu	-kie-
.	.	.	.	.	.	4d\	.	.	.	.	.
2E\	.	.	.	.	.	2e\	.	.	.	.	.
1D	.	.	1A	.	.	2f\	.	.	1a	.	.
*	*	*	*	*	*	*custos:d	*	*	*	*	*
!	!	!	!	!	!	!LO:LB:g=original	!	!	!	!	!
*	*	*	*	*	*	*xywh-#6:606,1298,2165,474	*	*	*	*	*
.	.	.	.	.	.	2.d\	.	.	.	.	.
*	*	*	*Xlig	*	*	*	*	*	*Xlig	*	*
=16-	=16-	=16-	=16-	=16-	=16-	=16-	=16-	=16-	=16-	=16-	=16-
*	*	*	*lig	*	*	*	*	*	*	*	*
2E\	.	.	1G	zbá-	.	.	.	.	2g/	lndz-	.
.	.	.	.	.	.	4c/	.	.	.	.	.
1G	.	.	.	.	.	1c	.	.	2e/	-kie-	.
.	.	.	1F	.	.	.	.	.	1f	-mu/	.
!	!	!	!	!	!	!LO:SIC:s=2Bi	!	!	!	!	!
2F\	.	.	.	.	.	2B-/	.	.	.	.	.
*	*	*	*Xlig	*	*	*	*	*	*	*	*
=17-	=17-	=17-	=17-	=17-	=17-	=17-	=17-	=17-	=17-	=17-	=17-
0G	.	-mu	0C	-wie-	-mu	0c	.	-mu	0e	.	-mu
=18-	=18-	=18-	=18-	=18-	=18-	=18-	=18-	=18-	=18-	=18-	=18-
1F	.	a-	1F	-niu	a-	2r	.	.	1a	á-	a-
.	.	.	.	.	.	1f	.	a-	.	.	.
*custos:C	*	*	*	*	*	*	*	*	*	*	*
!LO:LB:g=original	!	!	!	!	!	!	!	!	!	!	!
*xywh-#6:538,2644,2166,547	*	*	*	*	*	*	*	*	*	*	*
1C	.	-by	1G	ludz-	-by	.	.	.	1g	-by	-by
.	.	.	.	.	.	2e\	.	-by	.	.	.
=19-	=19-	=19-	=19-	=19-	=19-	=19-	=19-	=19-	=19-	=19-	=19-
*	*	*	*lig	*	*	*	*	*	*	*	*
2.F\	.	wy-	1A	-kie-	wy-	1f	.	wy-	4f/	wy-	wy-
.	.	.	.	.	.	.	.	.	4g/	-rwał	.
.	.	.	.	.	.	.	.	.	4a\	.	.
4G\	.	.	.	.	.	.	.	.	4b-\	.	.
*	*	*	*	*	*	*	*	*	*custos:cc	*	*
!	!	!	!	!	!	!	!	!	!LO:LB:g=original	!	!
*	*	*	*	*	*	*	*	*	*xywh-#5:646,2038,1862,577	*	*
4A\	.	.	1F	-mu/	.	1f	.	-rwał	2.cc\	ie-	.
4B-\	.	.	.	.	.	.	.	.	.	.	.
2.c\	.	.	.	.	.	.	.	.	.	.	.
!	!	!	!	!	!	!	!	!	!LO:SIC:s=8b-L	!	!
.	.	.	.	.	.	.	.	.	8b-\	-go/	.
!	!	!	!	!	!	!	!	!	!LO:SIC:s=8aJ	!	!
.	.	.	.	.	.	.	.	.	8a\	.	.
*	*	*	*Xlig	*	*	*	*	*	*	*	*
=20-	=20-	=20-	=20-	=20-	=20-	=20-	=20-	=20-	=20-	=20-	=20-
.	.	.	1c	á-	-rwał	2.e\	.	je-	2g/	z mo-	.
4B-\	.	.	.	.	.	.	.	.	.	.	.
2A\	.	-rwał	.	.	.	.	.	.	1cc	-cy	-rwał
.	.	.	.	.	.	4f\	.	.	.	.	.
1G	.	je-	1d	-by	je-	1g	.	.	.	.	.
!	!	!	!	!	!	!	!	!	!LO:SIC:s=2bi	!	!
.	.	.	.	.	.	.	.	je-	2b-\	dy-	je-
=21-	=21-	=21-	=21-	=21-	=21-	=21-	=21-	=21-	=21-	=21-	=21-
0C	.	-go	0c	wyr-	-go	0e	.	-go	0cc	-ia-	-go
=22-	=22-	=22-	=22-	=22-	=22-	=22-	=22-	=22-	=22-	=22-	=22-
1F	.	z_mo-	1F	-wał	z_mo-	1f	.	z_mo-	1cc	-błá	z_mo-
*	*	*	*custos:G	*	*	*	*	*	*	*	*
!	!	!	!LO:LB:g=original	!	!	!	!	!	!	!	!
*	*	*	*xywh-#5:2929,1935,2000,538	*	*	*	*	*	*	*	*
1C	.	-cy	1G	ie-	-cy	1e	.	-cy	1cc	żłe-	-cy
=23-	=23-	=23-	=23-	=23-	=23-	=23-	=23-	=23-	=23-	=23-	=23-
!LO:SIC:s=1F	!	!	!	!	!	!	!	!	!	!	!
!LO:TX:t=P:problem:pominięty dźwięk	!	!	!	!	!	!	!	!	!	!	!
1AAyy	.	dia-	1A	-go/	dia-	1c	.	dia-	1a	-go.	dia-
1BB-	.	-bła	1B-	z mo-	-bła	1d	.	-bła	2f/	.	-bła
.	.	.	.	.	.	.	.	.	2.g/	.	.
=24-	=24-	=24-	=24-	=24-	=24-	=24-	=24-	=24-	=24-	=24-	=24-
*	*	*	*lig	*	*	*	*	*	*	*	*
0C	.	złe-	1A	-cy	złe-	0c	.	złe-	.	.	.
.	.	.	.	.	.	.	.	.	4f/	.	.
.	.	.	.	.	.	.	.	.	1f	.	złe-
.	.	.	1G	dyia-	.	.	.	.	.	.	.
.	.	.	.	.	.	.	.	.	2e/	.	.
*	*	*	*Xlig	*	*	*	*	*	*	*	*
=25-	=25-	=25-	=25-	=25-	=25-	=25-	=25-	=25-	=25-	=25-	=25-
!LO:SIC:s=0FF;	!	!	!LO:SIC:s=0F;	!	!	!LO:SIC:s=0c;	!	!	!LO:SIC:s=0f;	!	!
0FFl/	.	-go.	0Fl/	-błá złego.	-go.	0cl\	.	-go.	0fl\	.	-go.
==	==	==	==	==	==	==	==	==	==	==	==
*-	*-	*-	*-	*-	*-	*-	*-	*-	*-	*-	*-
!!!system-decoration: [(*)]
!!LO:MO:ori
!!!RDF**kern: > = above
!!!RDF**kern: < = below
!!!RDF**kern: l = terminal long
!!LO:MO:mod
!! !!!RDF**kern: i = editorial accidental
!!LO:MO:end
!!!filter-modern: shed -e "s/TX(.*):t=P:/tx$1:t=P:/LG" | shed -e "s/^custos:/Xcustos:/I" | sic -sq | modori -m | autostem -r | tie -s | humtr -p | shed -e "s/-//B"
!!!ENC: Katarzyna Serwa
!!!END: 2022-05-08
!!!ENC: Arkadiusz Malec
!!!END: 2022-05-02
!!!ENC-modern: Andrzej Kubiczek
!!!END-modern: 2022-07-24
!!!ENC-iiif: Emilia Ziętek
!!!END-iiif: 2022-09-02
!!!YEC: Copyright 2022 Narodowy Instytut Fryderyka Chopina (https://polishscores.org)
!!!YEM: License CC-BY-4.0 (https://creativecommons.org/licenses/by/4.0)
